!!! OTL: Literature61
!!! Chapter: 5
!!! Section: II
!!! Page: 358
!!! Mode: 
!!! Encoder: ESM
**kern
*staff1
*I"Piano
=1-
*clefG2
*k[b-e-]
*B-:
*met(c)
*M4/4
4r
4r
4r
4f/
=2
4b-\
8f/L
8e-/J
4d/
8e-/L
8f/J
=3
4.g/
8c/
4c/
8r
8c/
=4
4.f/
8f/
4f/
8g/L
8a/J
=5
2b-\
4r
4f/
=6
4dd\
8dd\L
8dd\J
4dd\
8.cc\L
16b-\Jk
=7
2cc\
4f/
8r
8f/
=8
4b-\
8b-\L
8b-\J
4b-\
8a/L
8g/J
=9
!!linebreak:original
2a/
4f/
4f/
=10
4g/
8g/L
8g/J
4f/
8f/L
8f/J
=11
4en/
2e-/
4d/
=12
4g/
8.c/L
16c/Jk
4e-/
8A/L
8A/J
=13
2.B-/
4r
==
*-
